public/logos/UX.svg

<?xml version="1.0" encoding="UTF-8"?>
<svg xmlns="http://www.w3.org/2000/svg" xmlns:xlink="http://www.w3.org/1999/xlink" width="176pt" height="34.14pt" viewBox="0 0 176 34.14" version="1.1">
<defs>
<clipPath id="clip1">
  <path d="M 0 0 L 49 0 L 49 34.140625 L 0 34.140625 Z M 0 0 "/>
</clipPath>
</defs>
<g id="surface1">
<path style=" stroke:none;fill-rule:nonzero;fill:rgb(23.50769%,41.783142%,73.951721%);fill-opacity:1;" d="M 72.675781 10.234375 C 71.261719 9.039062 71.644531 6.800781 73.359375 6.230469 C 75.300781 5.585938 77.191406 7.425781 76.488281 9.277344 C 75.914062 10.785156 73.917969 11.285156 72.675781 10.234375 "/>
<path style=" stroke:none;fill-rule:nonzero;fill:rgb(23.50769%,41.783142%,73.951721%);fill-opacity:1;" d="M 145.605469 19.746094 C 145.695312 24.535156 142.75 27.667969 138.546875 27.824219 C 134.570312 27.976562 131.449219 24.464844 131.484375 19.832031 C 131.519531 15.417969 134.476562 12.113281 138.375 12.050781 C 142.53125 11.988281 145.523438 15.265625 145.605469 19.746094 Z M 135.789062 19.75 C 135.652344 21.980469 136.640625 24.007812 138.492188 24.042969 C 139.882812 24.148438 141.507812 22.597656 141.386719 19.855469 C 141.285156 17.554688 140.699219 15.753906 138.578125 15.671875 C 136.890625 15.769531 135.941406 17.265625 135.789062 19.75 "/>
<path style=" stroke:none;fill-rule:nonzero;fill:rgb(23.50769%,41.783142%,73.951721%);fill-opacity:1;" d="M 121.996094 12.289062 L 125 12.300781 L 125.742188 14.699219 C 126.59375 12.03125 129.035156 11.992188 130.308594 12.148438 L 130.3125 16.707031 L 126.191406 16.949219 L 126.171875 27.453125 L 121.960938 27.453125 L 121.996094 12.289062 "/>
<path style=" stroke:none;fill-rule:nonzero;fill:rgb(23.50769%,41.783142%,73.951721%);fill-opacity:1;" d="M 80 12.246094 L 83.003906 12.257812 L 83.742188 14.652344 C 84.59375 11.988281 87.035156 11.945312 88.308594 12.101562 L 88.316406 16.660156 L 84.191406 16.90625 L 84.175781 27.410156 L 79.964844 27.410156 L 80 12.246094 "/>
<path style=" stroke:none;fill-rule:nonzero;fill:rgb(23.50769%,41.783142%,73.951721%);fill-opacity:1;" d="M 91.234375 27.484375 L 91.234375 17.523438 L 91.253906 7.355469 L 102.9375 7.34375 L 102.9375 10.859375 L 95.921875 10.867188 C 95.925781 12.308594 95.945312 14.167969 95.941406 15.609375 L 101.785156 15.660156 L 101.785156 19.191406 L 95.917969 19.171875 L 95.933594 23.953125 L 100.105469 23.972656 L 102.941406 23.988281 L 102.941406 27.484375 L 91.234375 27.484375 "/>
<path style=" stroke:none;fill-rule:nonzero;fill:rgb(23.50769%,41.783142%,73.951721%);fill-opacity:1;" d="M 72.136719 27.359375 L 72.144531 12.230469 L 76.300781 12.230469 L 76.277344 27.398438 L 72.136719 27.359375 "/>
<path style=" stroke:none;fill-rule:nonzero;fill:rgb(23.50769%,41.783142%,73.951721%);fill-opacity:1;" d="M 52.683594 27.304688 L 58.023438 7.53125 L 64.230469 7.566406 L 69.648438 27.382812 L 64.667969 27.398438 L 63.773438 23.96875 C 62.027344 23.996094 60.070312 24.03125 58.328125 23.984375 L 57.476562 27.378906 Z M 62.898438 19.644531 L 61.085938 12.210938 L 59.359375 19.660156 Z M 62.898438 19.644531 "/>
<path style=" stroke:none;fill-rule:nonzero;fill:rgb(23.50769%,41.783142%,73.951721%);fill-opacity:1;" d="M 166.378906 27.703125 C 164.082031 27.035156 162.882812 24.445312 163.390625 21.925781 C 163.722656 20.277344 164.863281 18.273438 169.332031 18.011719 L 171.382812 17.890625 C 171.582031 17.878906 171.375 16.578125 171 16.078125 C 169.671875 14.1875 167.183594 15.40625 164.894531 16.003906 L 163.980469 13.152344 C 164.710938 12.773438 165.644531 12.5 166.898438 12.070312 C 169.183594 11.28125 172.328125 11.761719 173.671875 12.609375 C 174.476562 13.117188 175.089844 13.953125 175.574219 15.058594 C 175.753906 15.460938 175.9375 16.449219 175.949219 16.941406 L 176 27.460938 L 172.765625 27.484375 L 172.027344 25.71875 C 170.292969 27.796875 168.699219 28.355469 166.378906 27.703125 Z M 171.503906 23.511719 L 171.464844 20.839844 C 168.863281 20.457031 166.136719 21.84375 167.550781 24.054688 C 168.382812 25.347656 170.671875 24.609375 171.503906 23.511719 "/>
<path style=" stroke:none;fill-rule:nonzero;fill:rgb(23.50769%,41.783142%,73.951721%);fill-opacity:1;" d="M 109.214844 27.75 C 107.84375 27.417969 106.980469 26.804688 106.296875 25.675781 C 105.765625 24.804688 105.699219 23.980469 105.699219 18.460938 L 105.699219 12.230469 L 109.851562 12.230469 L 109.875 21.691406 C 109.871094 22.40625 109.890625 22.972656 110.113281 23.402344 C 110.945312 24.972656 113.089844 24.695312 113.78125 23.171875 C 113.9375 22.832031 113.9375 22.253906 113.9375 21.808594 L 113.964844 12.257812 L 118.34375 12.230469 L 118.355469 27.75 L 114.921875 27.738281 L 114.324219 25.8125 C 113.757812 26.394531 113.113281 27.019531 112.441406 27.378906 C 111.394531 27.804688 110.1875 27.9375 109.214844 27.75 "/>
<path style=" stroke:none;fill-rule:nonzero;fill:rgb(23.50769%,41.783142%,73.951721%);fill-opacity:1;" d="M 148.246094 11.785156 L 151.589844 11.800781 L 152.078125 13.570312 C 152.316406 12.828125 154.183594 11.585938 155.589844 11.5625 C 157.914062 11.335938 160.03125 12.886719 160.953125 15.492188 C 161.570312 17.234375 161.621094 21.367188 161.09375 23.46875 C 160.324219 26.515625 157.289062 28.1875 154.390625 27.71875 C 153.699219 27.605469 153.109375 27.289062 152.472656 27.074219 L 152.433594 32.410156 L 148.253906 32.402344 Z M 156.851562 22.644531 C 157.171875 21.507812 157.226562 20.5625 157.210938 19.339844 C 157.183594 17.03125 156.5625 14.824219 154.347656 14.921875 C 154.003906 14.9375 153.105469 15.054688 152.480469 15.855469 L 152.472656 23.578125 C 153.386719 25.023438 156.320312 24.527344 156.851562 22.644531 "/>
<g clip-path="url(#clip1)" clip-rule="nonzero">
<path style=" stroke:none;fill-rule:nonzero;fill:rgb(23.50769%,41.783142%,73.951721%);fill-opacity:1;" d="M 5.847656 33.699219 C 4.132812 33.152344 1.886719 30.746094 1.019531 28.527344 C -0.363281 24.5 -0.359375 18.957031 1.152344 14.464844 C 3.28125 8.34375 7.914062 2.957031 12.414062 1.222656 C 16.542969 -0.359375 22.929688 -0.449219 27.113281 4.082031 C 30.363281 0.988281 35.191406 -0.0234375 37.871094 0.0195312 C 44.539062 -0.277344 48.019531 2.410156 48.019531 7.429688 C 48.019531 9.230469 46.660156 11.835938 45.035156 13.152344 C 43.117188 14.703125 31.207031 22.191406 30.636719 22.191406 L 30.605469 18.65625 L 34.117188 16.175781 C 38.648438 12.980469 40.1875 11.316406 40.6875 9.074219 C 41.972656 3.34375 36.027344 1.738281 31.628906 6.632812 C 27.207031 11.550781 25.554688 21.808594 28.398438 26.6875 C 30.585938 30.4375 34.925781 29.273438 41.78125 25.203125 L 44.421875 23.511719 L 46.285156 26.113281 C 43.632812 28.398438 40.894531 30.375 38.113281 32.132812 C 35.636719 33.507812 33.273438 34.117188 30.445312 34.117188 C 25.183594 34.035156 21.859375 32.660156 20.304688 29.027344 C 20.183594 29.015625 18.953125 30.019531 17.40625 31.0625 C 13.863281 33.4375 9.511719 34.925781 5.847656 33.699219 Z M 19.226562 25.289062 C 18.519531 20.71875 19.769531 16.011719 20.867188 12.71875 C 23.121094 7.175781 22.035156 1.675781 15.800781 4.402344 C 14.03125 5.21875 11.320312 8.03125 10.070312 10.382812 C 6.214844 17.640625 7.511719 28.605469 12.230469 28.671875 C 14.152344 28.597656 16.726562 26.742188 19.226562 25.289062 "/>
</g>
</g>
</svg>

<svg xmlns="http://www.w3.org/2000/svg" width="176pt" height="45.52" viewBox="0 0 176 34.14"><defs><clipPath id="a"><path d="M0 0h49v34.14H0Zm0 0"/></clipPath></defs><path d="M72.676 10.234c-1.414-1.195-1.031-3.433.683-4.004 1.942-.644 3.832 1.196 3.13 3.047-.575 1.508-2.571 2.008-3.813.957M145.605 19.746c.09 4.79-2.855 7.922-7.058 8.078-3.977.153-7.098-3.36-7.063-7.992.036-4.414 2.993-7.719 6.891-7.781 4.156-.063 7.148 3.215 7.23 7.695m-9.816.004c-.137 2.23.852 4.258 2.703 4.293 1.39.105 3.016-1.445 2.895-4.188-.102-2.3-.688-4.101-2.809-4.183-1.687.098-2.637 1.594-2.789 4.078M121.996 12.29l3.004.01.742 2.4c.852-2.669 3.293-2.708 4.567-2.552l.004 4.559-4.122.242-.02 10.504h-4.21zM80 12.246l3.004.012.738 2.394c.852-2.664 3.293-2.707 4.567-2.55l.007 4.558-4.125.246-.015 10.504h-4.211zM91.234 27.484v-9.96l.02-10.169 11.683-.011v3.515l-7.015.008c.004 1.442.023 3.301.02 4.742l5.843.051v3.531l-5.867-.02.016 4.782 4.171.02 2.836.015v3.496zM72.137 27.36l.008-15.13H76.3l-.024 15.168zM52.684 27.305l5.34-19.774 6.206.035 5.418 19.817-4.98.015-.895-3.43c-1.746.028-3.703.063-5.445.016l-.851 3.395Zm10.214-7.66-1.812-7.434-1.727 7.45ZM166.379 27.703c-2.297-.668-3.496-3.258-2.988-5.777.332-1.649 1.472-3.653 5.941-3.914l2.05-.121c.2-.012-.007-1.313-.382-1.813-1.328-1.89-3.816-.672-6.105-.074l-.915-2.852c.73-.379 1.665-.652 2.918-1.082 2.286-.789 5.43-.308 6.774.54.805.507 1.418 1.343 1.902 2.449.18.402.363 1.39.375 1.882l.051 10.52-3.234.023-.739-1.765c-1.734 2.078-3.328 2.636-5.648 1.984m5.125-4.191-.04-2.672c-2.6-.383-5.327 1.004-3.913 3.215.832 1.293 3.12.554 3.953-.543M109.215 27.75c-1.371-.332-2.235-.945-2.918-2.074-.531-.871-.598-1.696-.598-7.215v-6.23h4.153l.023 9.46c-.004.715.016 1.282.238 1.711.832 1.57 2.977 1.293 3.668-.23.156-.34.156-.918.156-1.363l.028-9.551 4.379-.028.011 15.52-3.433-.012-.598-1.925c-.566.582-1.21 1.207-1.883 1.566-1.046.426-2.254.558-3.226.371M148.246 11.785l3.344.016.488 1.77c.238-.743 2.106-1.985 3.512-2.008 2.324-.227 4.441 1.324 5.363 3.93.617 1.741.668 5.874.14 7.976-.769 3.047-3.804 4.718-6.702 4.25-.692-.114-1.282-.43-1.918-.645l-.04 5.336-4.18-.008Zm8.606 10.86c.32-1.137.375-2.082.359-3.305-.027-2.309-.649-4.516-2.863-4.418-.344.015-1.243.133-1.868.933l-.007 7.723c.914 1.445 3.847.95 4.379-.933" style="stroke:none;fill-rule:nonzero;fill:#3c6bbd;fill-opacity:1"/><g clip-path="url(#a)"><path d="M5.848 33.7c-1.715-.548-3.961-2.954-4.828-5.173-1.383-4.027-1.38-9.57.132-14.062C3.282 8.344 7.914 2.957 12.414 1.223 16.543-.36 22.93-.45 27.114 4.082 30.363.988 35.19-.023 37.87.02 44.54-.277 48.02 2.41 48.02 7.43c0 1.8-1.36 4.406-2.985 5.722-1.918 1.551-13.828 9.04-14.398 9.04l-.032-3.536 3.512-2.48c4.531-3.196 6.07-4.86 6.57-7.102 1.286-5.73-4.66-7.336-9.058-2.441-4.422 4.918-6.074 15.176-3.23 20.054 2.187 3.75 6.527 2.586 13.382-1.484l2.64-1.691 1.864 2.601a68.6 68.6 0 0 1-8.172 6.02c-2.476 1.375-4.84 1.984-7.668 1.984-5.261-.082-8.586-1.457-10.14-5.09-.121-.011-1.352.993-2.899 2.035-3.543 2.375-7.894 3.864-11.558 2.637m13.379-8.41c-.707-4.571.543-9.278 1.64-12.571 2.254-5.543 1.168-11.043-5.066-8.317-1.77.817-4.48 3.63-5.73 5.98-3.856 7.259-2.56 18.223 2.16 18.29 1.921-.074 4.496-1.93 6.996-3.383" style="stroke:none;fill-rule:nonzero;fill:#3c6bbd;fill-opacity:1"/></g></svg>
